!!!OTL: SCHWESTERLEIN SCHWESTERLEIN
!!!ARE: Europa, Mitteleuropa, Deutschland
!!!SCT: F0079
!!!YEM: Copyright 1995, estate of Helmut Schaffrath.
**kern
*ICvox
*Ivox
*M3/4
*k[]
*a:
=1
{8.e
16a
2ccn
=2
8.e
16a
2ccn}
=3
{8ccn
8b
4a
4g#
=4
2a
4r}
=5
{8gn
8gn
4ccn
4ee
=6
8ee
8dd
8ccn
8b
4ccn}
=7
{8gn
8gn
4ccn
4ee
=8
8ee
8dd
8ccn
8b
4ccn}
=9
{8.ccn
16a
2a
=10
8.g#
16b
2b}
=11
{8ccn
8b
4a
4g#
=12
2a
4r}
==
!!!AGN: Tanz - Lied; Tod
!!!ONB: ESAC (Essen Associative Code) Database: FINK
!!!AMT: simple triple
!!!AIN: vox
!!!EED: Helmut Schaffrath
!!!EEV: 1.0
*-
